kora-light/actions/scalable/edit-clear-list.svg

<svg xmlns="http://www.w3.org/2000/svg" width="16" height="16" version="1.1">
 <defs>
  <style id="current-color-scheme" type="text/css">
   .ColorScheme-Text { color:#444444; } .ColorScheme-Highlight { color:#4285f4; }
  </style>
 </defs>
 <path style="fill:currentColor" class="ColorScheme-Text" d="M 8,1 A 7,7 0 0 0 1,8 7,7 0 0 0 8,15 7,7 0 0 0 15,8 7,7 0 0 0 8,1 Z M 5,5 H 6 C 6.28,5 6.5407,5.1002 6.7207,5.2812 L 8,6.5586 9.2793,5.2812 C 9.4593,5.1002 9.72,5 10,5 H 11 V 6 C 11,6.276 10.901,6.5377 10.721,6.7188 L 9.4395,8 10.721,9.2812 C 10.901,9.4621 11,9.7239 11,10 V 11 H 10 C 9.72,11 9.4593,10.9 9.2793,10.719 L 8,9.4336 6.7207,10.719 C 6.5407,10.9 6.28,11 6,11 H 5 V 10 C 5,9.7239 5.0993,9.4622 5.2793,9.2812 L 6.5605,8 5.2793,6.7188 C 5.0993,6.5377 5,6.276 5,6 Z"/>
</svg>

<svg xmlns="http://www.w3.org/2000/svg" style="fill-rule:evenodd;clip-rule:evenodd;stroke-linejoin:round;stroke-miterlimit:2" width="100%" height="100%" version="1.1" viewBox="0 0 16 16" xml:space="preserve">
 <defs>
  <style id="current-color-scheme" type="text/css">
   .ColorScheme-Text { color:#444444; } .ColorScheme-Highlight { color:#4285f4; } .ColorScheme-NeutralText { color:#ff9800; } .ColorScheme-PositiveText { color:#4caf50; } .ColorScheme-NegativeText { color:#f44336; }
  </style>
 </defs>
 <path style="fill:currentColor;fill-opacity:0.3" class="ColorScheme-Text" d="M8,1c-3.84,0 -7,3.16 -7,7c0,3.84 3.16,7 7,7c3.84,0 7,-3.16 7,-7c0,-3.84 -3.16,-7 -7,-7Z"/>
 <path style="fill:currentColor;" class="ColorScheme-Text" d="M5,5l1,0c0.28,0 0.541,0.1 0.721,0.281l1.279,1.278l1.279,-1.278c0.18,-0.181 0.441,-0.281 0.721,-0.281l1,0l0,1c0,0.276 -0.099,0.538 -0.279,0.719l-1.281,1.281l1.281,1.281c0.18,0.181 0.279,0.443 0.279,0.719l0,1l-1,0c-0.28,0 -0.541,-0.1 -0.721,-0.281l-1.279,-1.285l-1.279,1.285c-0.18,0.181 -0.441,0.281 -0.721,0.281l-1,0l0,-1c0,-0.276 0.099,-0.538 0.279,-0.719l1.282,-1.281l-1.282,-1.281c-0.18,-0.181 -0.279,-0.443 -0.279,-0.719l0,-1Z"/>
</svg>
